!!!!SEGMENT: pl-cz--iii-557--001-002_raszek-waclaw--sinfonia-ex-c-andante-exspressivo.krn
!!!cenid: 18xx:1017
!!!COM: Raszek, Wacław
!!!COM-rismid: pe30020314
!!!CDT: <1848->1848
!!!CNT:
!!!OPR: Sinfonia ex C
!!!OTL: Andante exspressivo
!!!OMV: 002
!!!PDT:
!!!AGN: Secular
!!!SMS-siglum: PL-CZ
!!!SMS-shelfmark: III-557
!!!SMS-shelfwork: 001-002 M
!!!SMS-variant:
!!!SMS-altvar:
!!!NIFC-rismid: 300001059
!!!system-decoration: [(s1,s2)][(s3,s4)][(s5,s6,s7,s8)]
!!!AIN: 1 bass 1 cor 1 empty 2 oboe 1 viola 2 violn
!!!key:
**kern	**dynam	**kern	**dynam	**kern	**dynam	**kern	**dynam	**kern	**kern	**kern	**kern
*part8	*part8	*part7	*part7	*part6	*part6	*part5	*part5	*part4	*part3	*part2	*part1
*staff8	*	*staff7	*	*staff6	*	*staff5	*	*staff4	*staff3	*staff2	*staff1
*Ibass	*	*Iviola	*	*Ivioln	*	*Ivioln	*	*Iempty	*Icor	*Ioboe	*Ioboe
*I"Basso	*	*I"Viola	*	*I"Violino Secondo.	*	*I"Violino Primo	*	*I"Corno Secondo in C.	*I"Corno Primo in C.	*I"Oboe Secundo	*I"Oboe Primo.
*I'cb	*	*I'vla	*	*I'vl II	*	*I'vl I	*	*I'cor II	*I'cor I	*I'ob II	*I'ob I
*clefF4	*	*clefC3	*	*clefG2	*	*clefG2	*	*clefG2	*clefG2	*clefG2	*clefG2
*k[f#]	*	*k[f#]	*	*k[f#]	*	*k[f#]	*	*k[f#]	*k[f#]	*k[f#]	*k[f#]
*G:	*	*G:	*	*G:	*	*G:	*	*G:	*G:	*G:	*G:
*M3/4	*	*M3/4	*	*M3/4	*	*M3/4	*	*M3/4	*M3/4	*M3/4	*M3/4
=1	=1	=1	=1	=1	=1	=1	=1	=1	=1	=1	=1
!!LO:TX:t=P:problem:all\right:global
!LO:TX:t=P:problem=karta nr 14	!	!LO:TX:t=P:problem=karta nr 11	!	!	!	!	!	!	!	!	!
!LO:TX:a:B:t=Andante	!LO:DY:a	!LO:TX:a:B:t=Andante	!LO:DY:a	!LO:TX:a:B:t=Andante Expresive	!	!LO:TX:a:B:t=Andante Expresive	!	!LO:TX:a:B:t=Andante Tacet	!LO:TX:a:B:t=Andante Tacet	!LO:TX:a:B:t=Adagio Tacet	!LO:TX:a:B:t=andante Tacet
4GG/	f	4G/	f	4b 4d/	f	(8.gg\L	f	2.ryy	2.ryy	2.ryy	2.ryy
.	.	.	.	.	.	32ff#\LL	.	.	.	.	.
.	.	.	.	.	.	32ee\JJJ)	.	.	.	.	.
4r	.	4r	.	4r	.	4dd\	.	.	.	.	.
4r	.	4r	.	4r	.	4dd\	.	.	.	.	.
=2	=2	=2	=2	=2	=2	=2	=2	=2	=2	=2	=2
!LO:TX:t=P:problem=all\right&colon; global	!	!LO:TX:t=P:problem=all\right&colon; global	!	!	!LO:DY:a	!	!	!	!	!	!
(4G\	.	(4g\	.	(4b/	p	(4dd\	.	2.ryy	2.ryy	2.ryy	2.ryy
4A\	.	4d\	.	4f#/	.	4cc\	.	.	.	.	.
4B\)	.	4d\)	.	4g/)	.	4b\)	.	.	.	.	.
=3	=3	=3	=3	=3	=3	=3	=3	=3	=3	=3	=3
(2c\	p	(2c\	p	2e/	.	8a/L	p	2.ryy	2.ryy	2.ryy	2.ryy
.	.	.	.	.	.	8a/	.	.	.	.	.
.	.	.	.	.	.	8a/	.	.	.	.	.
.	.	.	.	.	.	8a/J	.	.	.	.	.
4d\)	.	4d\)	.	4f#/	.	(16ee\LL	.	.	.	.	.
.	.	.	.	.	.	16cc\	.	.	.	.	.
.	.	.	.	.	.	16b\	.	.	.	.	.
.	.	.	.	.	.	16a\JJ)	.	.	.	.	.
=4	=4	=4	=4	=4	=4	=4	=4	=4	=4	=4	=4
8r	.	8r	.	(4.f#/	.	(4.a/	.	2.ryy	2.ryy	2.ryy	2.ryy
!LO:TX:t=P:problem=mixed beam	!	!LO:TX:t=P:problem=mixed beam	!	!	!	!	!	!	!	!	!
8D\L	.	8d\L	.	.	.	.	.	.	.	.	.
8E\	.	8e\	.	.	.	.	.	.	.	.	.
8F#\	.	8f#\	.	16g/LL	.	16b\LL	.	.	.	.	.
.	.	.	.	16a/JJ)	.	16cc\JJ)	.	.	.	.	.
8G\	.	8g\	.	4g/	.	4b\	.	.	.	.	.
8GG/J	.	8G/J	.	.	.	.	.	.	.	.	.
=5	=5	=5	=5	=5	=5	=5	=5	=5	=5	=5	=5
!	!	!	!	!LO:TX:t=P:problem=all\right&colon; global	!	!	!	!	!	!	!
4G\	f	4G/	f	4b\	f	(8.gg\L	f	2.ryy	2.ryy	2.ryy	2.ryy
.	.	.	.	.	.	32ff#\LL	.	.	.	.	.
.	.	.	.	.	.	32ee\JJJ)	.	.	.	.	.
4r	.	4r	.	4r	.	4dd\	.	.	.	.	.
4r	.	4r	.	4r	.	4dd\	.	.	.	.	.
=6	=6	=6	=6	=6	=6	=6	=6	=6	=6	=6	=6
(4G\	.	(4g\	.	(4b/	.	(4dd\	.	2.ryy	2.ryy	2.ryy	2.ryy
4A\	.	4d\	.	4f#/	.	4cc\	.	.	.	.	.
4B\)	.	4d\)	.	4g/)	.	4b\)	.	.	.	.	.
=7	=7	=7	=7	=7	=7	=7	=7	=7	=7	=7	=7
2c\	.	4c\	.	(4e/	.	(16b\LL	.	2.ryy	2.ryy	2.ryy	2.ryy
.	.	.	.	.	.	16a\)	.	.	.	.	.
.	.	.	.	.	.	(32dd\L	.	.	.	.	.
.	.	.	.	.	.	32cc\	.	.	.	.	.
.	.	.	.	.	.	32b\	.	.	.	.	.
.	.	.	.	.	.	32a\JJJ)	.	.	.	.	.
.	.	4d\	.	4B/	.	4g/	.	.	.	.	.
8d\L	.	4c\	.	4A/)	.	4f#m/	.	.	.	.	.
8D\J	.	.	.	.	.	.	.	.	.	.	.
=8	=8	=8	=8	=8	=8	=8	=8	=8	=8	=8	=8
4G\	.	2A/	.	(2c/	.	(2f#/	.	2.ryy	2.ryy	2.ryy	2.ryy
4D\	.	.	.	.	.	.	.	.	.	.	.
4GG/	.	8G/	.	4B/)	.	8g/)	.	.	.	.	.
.	.	8r	.	.	.	8r	.	.	.	.	.
=9	=9	=9	=9	=9	=9	=9	=9	=9	=9	=9	=9
!	!LO:DY:a	!	!LO:DY:a	!	!LO:DY:a	!	!LO:DY:a	!	!	!	!
4GG/	pp	(8G/L	pp	(8B/L	pp	4.g/	pp	2.ryy	2.ryy	2.ryy	2.ryy
.	.	8B/)	.	8d/	.	.	.	.	.	.	.
4G\	.	(8G/	.	8B/	.	.	.	.	.	.	.
.	.	8B/)	.	8d/	.	(8g/L	.	.	.	.	.
4r	.	(8A/	.	8c/	.	8f#/	.	.	.	.	.
.	.	8G/J)	.	8B/J)	.	8g/J)	.	.	.	.	.
=10	=10	=10	=10	=10	=10	=10	=10	=10	=10	=10	=10
*	*	*tremolo	*	*	*	*	*	*	*	*	*
8r	.	8F#/L	.	8d/L	.	4.a/	.	2.ryy	2.ryy	2.ryy	2.ryy
!LO:TX:t=P:problem=mixed beam	!	!	!	!	!	!	!	!	!	!	!
8D\L	.	8F#/	.	8d/	.	.	.	.	.	.	.
8F#\	.	8F#/	.	8d/	.	.	.	.	.	.	.
8D\	.	8F#/J	.	8d/J	.	(16b\LL	.	.	.	.	.
.	.	.	.	.	.	16cc\JJ	.	.	.	.	.
*	*	*Xtremolo	*	*	*	*	*	*	*	*	*
8G\	.	4G/	.	4d/	.	4b\)	.	.	.	.	.
8GG/J	.	.	.	.	.	.	.	.	.	.	.
=11	=11	=11	=11	=11	=11	=11	=11	=11	=11	=11	=11
4G\	.	4B/	.	4d/	.	[4dd\	.	2.ryy	2.ryy	2.ryy	2.ryy
4r	.	4r	.	4r	.	16dd\LL]	.	.	.	.	.
.	.	.	.	.	.	(16b\	.	.	.	.	.
.	.	.	.	.	.	16ee\	.	.	.	.	.
.	.	.	.	.	.	16dd\JJ	.	.	.	.	.
4r	.	4r	.	4r	.	16cc\LL	.	.	.	.	.
.	.	.	.	.	.	16b\	.	.	.	.	.
.	.	.	.	.	.	16a\	.	.	.	.	.
.	.	.	.	.	.	16g\JJ)	.	.	.	.	.
=12	=12	=12	=12	=12	=12	=12	=12	=12	=12	=12	=12
8r	.	8r	.	8r	.	(4.a/	.	2.ryy	2.ryy	2.ryy	2.ryy
!LO:TX:t=P:problem=mixed beam	!	!	!	!	!	!	!	!	!	!	!
8D\L	.	8c\L	.	8d/L	.	.	.	.	.	.	.
8F#^\	.	8c\	.	8d/	.	.	.	.	.	.	.
8D\	.	8c\J	.	8d/J	.	16b/LL	.	.	.	.	.
.	.	.	.	.	.	16cc/JJ)	.	.	.	.	.
8G\	.	4B/	.	4d/	.	8b\	.	.	.	.	.
8GG/J	.	.	.	.	.	8r	.	.	.	.	.
=13	=13	=13	=13	=13	=13	=13	=13	=13	=13	=13	=13
8r	.	8r	.	(2cc^\	.	(2ee^\	.	2.ryy	2.ryy	2.ryy	2.ryy
!LO:TX:t=P:problem=mixed beam	!	!LO:TX:t=P:problem=mixed beam	!	!	!	!	!	!	!	!	!
8C\L	.	8c\L	.	.	.	.	.	.	.	.	.
8E^\	.	8e^\	.	.	.	.	.	.	.	.	.
8F#\	.	8f#\	.	.	.	.	.	.	.	.	.
8G\	.	8g\	.	8b\)	.	8dd\)	.	.	.	.	.
8GG/J	.	8G/J	.	8r	.	8r	.	.	.	.	.
=14	=14	=14	=14	=14	=14	=14	=14	=14	=14	=14	=14
8r	.	8r	.	(2a^/	.	(2cc^\	.	2.ryy	2.ryy	2.ryy	2.ryy
!	!	!LO:TX:t=P:problem=mixed beam	!	!	!	!	!	!	!	!	!
8D#X\L	.	8d#X\L	.	.	.	.	.	.	.	.	.
8D#\	.	8d#^\	.	.	.	.	.	.	.	.	.
8D#\J	.	8d#\	.	.	.	.	.	.	.	.	.
4E\	.	8e\	.	8g/)	.	8b\)	.	.	.	.	.
.	.	8E/J	.	8r	.	8r	.	.	.	.	.
=15	=15	=15	=15	=15	=15	=15	=15	=15	=15	=15	=15
4c\	.	4c\	.	4e/	.	(16a\LL	.	2.ryy	2.ryy	2.ryy	2.ryy
.	.	.	.	.	.	16a\	.	.	.	.	.
.	.	.	.	.	.	32ee\L	.	.	.	.	.
.	.	.	.	.	.	32cc\	.	.	.	.	.
.	.	.	.	.	.	32b\	.	.	.	.	.
.	.	.	.	.	.	32a\JJJ)	.	.	.	.	.
4d\	.	4d\	.	(4B/	.	(4g/	.	.	.	.	.
4D\	.	8c\	.	8A/)	.	4f#m/)	.	.	.	.	.
.	.	8r	.	8r	.	.	.	.	.	.	.
=16	=16	=16	=16	=16	=16	=16	=16	=16	=16	=16	=16
8r	.	8r	.	(2cc^\	.	(2ee^\	.	2.ryy	2.ryy	2.ryy	2.ryy
!LO:TX:t=P:problem=mixed beam	!	!LO:TX:t=P:problem=mixed beam	!	!	!	!	!	!	!	!	!
8C\L	.	8c\L	.	.	.	.	.	.	.	.	.
8E^\	.	8e^\	.	.	.	.	.	.	.	.	.
8F#\	.	8f#\	.	.	.	.	.	.	.	.	.
8G\	.	8g\	.	8b\)	.	4dd\)	.	.	.	.	.
8GG/J	.	8G/J	.	8r	.	.	.	.	.	.	.
=17	=17	=17	=17	=17	=17	=17	=17	=17	=17	=17	=17
8r	.	8r	.	(2a^/	.	(2cc^\	.	2.ryy	2.ryy	2.ryy	2.ryy
!	!	!LO:TX:t=P:problem=mixed beam	!	!	!	!	!	!	!	!	!
8D#X\L	.	8d#X\L	.	.	.	.	.	.	.	.	.
8D#^\	.	8f#^\	.	.	.	.	.	.	.	.	.
8D#\J	.	8f#\	.	.	.	.	.	.	.	.	.
8E\L	.	8e\	.	8g/)	.	8b\)	.	.	.	.	.
8e\J	.	8E/J	.	8r	.	8r	.	.	.	.	.
=18	=18	=18	=18	=18	=18	=18	=18	=18	=18	=18	=18
4c\	.	(4c\	.	(4e/	.	16b\LL	.	2.ryy	2.ryy	2.ryy	2.ryy
.	.	.	.	.	.	(32a\L	.	.	.	.	.
.	.	.	.	.	.	32b\	.	.	.	.	.
.	.	.	.	.	.	32dd\	.	.	.	.	.
.	.	.	.	.	.	32cc\	.	.	.	.	.
.	.	.	.	.	.	32b\	.	.	.	.	.
.	.	.	.	.	.	32a\JJJ)	.	.	.	.	.
4d\	.	4d\	.	4B/	.	(4g/	.	.	.	.	.
4D\	.	4c\)	.	4A/)	.	4f#m/)	.	.	.	.	.
=19	=19	=19	=19	=19	=19	=19	=19	=19	=19	=19	=19
4G\	.	2A/	.	(2c/	.	(2f#/	.	2.ryy	2.ryy	2.ryy	2.ryy
4D\	.	.	.	.	.	.	.	.	.	.	.
4GG/	.	8G/	.	8B/)	.	8g/)	.	.	.	.	.
.	.	8r	.	8r	.	8r	.	.	.	.	.
=20	=20	=20	=20	=20	=20	=20	=20	=20	=20	=20	=20
!	!	!	!LO:DY:a	!	!LO:DY:a	!	!	!	!	!	!
4D\	.	4A/	p	4f#/	p	(16dd\LL	.	2.ryy	2.ryy	2.ryy	2.ryy
.	.	.	.	.	.	16ee\	.	.	.	.	.
.	.	.	.	.	.	16ff#\	.	.	.	.	.
.	.	.	.	.	.	16gg\JJ)	.	.	.	.	.
4r	.	4r	.	4r	.	(16ff#\LL	.	.	.	.	.
.	.	.	.	.	.	16gg\	.	.	.	.	.
.	.	.	.	.	.	16aa\	.	.	.	.	.
.	.	.	.	.	.	16bb\JJ)	.	.	.	.	.
4r	.	4r	.	4r	.	(16aa\LL	.	.	.	.	.
.	.	.	.	.	.	16bb\	.	.	.	.	.
.	.	.	.	.	.	16ccc#X\	.	.	.	.	.
.	.	.	.	.	.	16ddd\JJ)	.	.	.	.	.
=21	=21	=21	=21	=21	=21	=21	=21	=21	=21	=21	=21
8r	pp	8r	.	8r	.	(8ddd\L	.	2.ryy	2.ryy	2.ryy	2.ryy
8e\	.	8A/	.	8g/L	.	8ccc#X\J)	.	.	.	.	.
*tremolo	*	*tremolo	*	*	*	*	*	*	*	*	*
8e\L	.	8A/L	.	8g/	.	(4.ccc#\	.	.	.	.	.
8e\	.	8A/	.	8g/	.	.	.	.	.	.	.
8e\	.	8A/	.	8g/	.	.	.	.	.	.	.
8e\J	.	8A/J	.	8g/J	.	8ddd\)	.	.	.	.	.
*Xtremolo	*	*Xtremolo	*	*	*	*	*	*	*	*	*
=22	=22	=22	=22	=22	=22	=22	=22	=22	=22	=22	=22
8r	.	8r	.	8r	.	8eee\L	.	2.ryy	2.ryy	2.ryy	2.ryy
8c#X\L	.	8e\	.	8a/L	.	8gg\J	.	.	.	.	.
*	*	*tremolo	*	*	*	*	*	*	*	*	*
8c#\	.	8e\L	.	8a/	.	(16gg\LL	.	.	.	.	.
.	.	.	.	.	.	16aa\	.	.	.	.	.
8c#\	.	8e\	.	8a/	.	16bb\	.	.	.	.	.
.	.	.	.	.	.	16aa\JJ)	.	.	.	.	.
!	!	!	!	!	!	!LO:SIC:v:s=(16ccc#\LL	!	!	!	!	!
8c#\	.	8e\	.	8a/	.	(16ccc\LL	.	.	.	.	.
.	.	.	.	.	.	16bb\	.	.	.	.	.
8c#\J	.	8e\J	.	8a/J	.	16aa\	.	.	.	.	.
.	.	.	.	.	.	16gg\JJ)	.	.	.	.	.
*	*	*Xtremolo	*	*	*	*	*	*	*	*	*
=23	=23	=23	=23	=23	=23	=23	=23	=23	=23	=23	=23
8r	.	8r	.	8r	.	(16aa\LL	.	2.ryy	2.ryy	2.ryy	2.ryy
.	.	.	.	.	.	16gg\	.	.	.	.	.
8d\	.	8f#\	.	8a/L	.	16ff#\	.	.	.	.	.
.	.	.	.	.	.	16gg\JJ)	.	.	.	.	.
*tremolo	*	*tremolo	*	*	*	*	*	*	*	*	*
8d\L	.	8f#\L	.	8a/	.	4.ff#\	.	.	.	.	.
8d\	.	8f#\	.	8a/	.	.	.	.	.	.	.
8d\	.	8f#\	.	8a/	.	.	.	.	.	.	.
8d\J	.	8f#\J	.	8a/J	.	16r	.	.	.	.	.
.	.	.	.	.	.	16dd\	.	.	.	.	.
*Xtremolo	*	*Xtremolo	*	*	*	*	*	*	*	*	*
=24	=24	=24	=24	=24	=24	=24	=24	=24	=24	=24	=24
2.r	.	8r	.	8r	.	(8ff#\L	.	2.ryy	2.ryy	2.ryy	2.ryy
.	.	8g\	.	8b\L	.	8ee\J)	.	.	.	.	.
*	*	*tremolo	*	*	*	*	*	*	*	*	*
.	.	8g\L	.	8b\	.	(4.ee\	.	.	.	.	.
.	.	8g\	.	8b\	.	.	.	.	.	.	.
.	.	8g\	.	8b\	.	.	.	.	.	.	.
.	.	8g\J	.	8b\J	.	8gg\)	.	.	.	.	.
*	*	*Xtremolo	*	*	*	*	*	*	*	*	*
=25	=25	=25	=25	=25	=25	=25	=25	=25	=25	=25	=25
2.r	.	8r	.	8r	.	(16ff#\LL	.	2.ryy	2.ryy	2.ryy	2.ryy
.	.	.	.	.	.	16ee\	.	.	.	.	.
.	.	8g\	.	8b\L	.	16dd#X\	.	.	.	.	.
.	.	.	.	.	.	16ee\JJ)	.	.	.	.	.
*	*	*tremolo	*	*	*	*	*	*	*	*	*
.	.	8g\L	.	8b\	.	(4.ee\	.	.	.	.	.
.	.	8g\	.	8b\	.	.	.	.	.	.	.
.	.	8g\	.	8b\	.	.	.	.	.	.	.
.	.	8g\J	.	8b\J	.	8gg\)	.	.	.	.	.
*	*	*Xtremolo	*	*	*	*	*	*	*	*	*
=26	=26	=26	=26	=26	=26	=26	=26	=26	=26	=26	=26
8D\L	.	8f#\L	.	(8a/L	.	16ff#\LL	.	2.ryy	2.ryy	2.ryy	2.ryy
!	!	!	!	!	!	!LO:N:vis=32	!	!	!	!	!
.	.	.	.	.	.	16ff#\	.	.	.	.	.
8G\J	.	8g\J	.	8g/J)	.	(32aa\L	.	.	.	.	.
.	.	.	.	.	.	32gg\	.	.	.	.	.
.	.	.	.	.	.	32ff#\	.	.	.	.	.
.	.	.	.	.	.	32ee\JJJ)	.	.	.	.	.
4A\	.	4a\	.	4f#/	.	4dd\	.	.	.	.	.
4AA/	.	4g\	.	4e/	.	4cc#X\	.	.	.	.	.
=27	=27	=27	=27	=27	=27	=27	=27	=27	=27	=27	=27
4D\	.	(2e\	.	(2g/	.	(2cc#X\	.	2.ryy	2.ryy	2.ryy	2.ryy
4AA/	.	.	.	.	.	.	.	.	.	.	.
4DD/	.	8d\)	.	8f#/)	.	8dd\)	.	.	.	.	.
.	.	8r	.	8r	.	8r	.	.	.	.	.
=28	=28	=28	=28	=28	=28	=28	=28	=28	=28	=28	=28
!	!LO:DY:a	!	!LO:DY:a	!	!	!	!	!	!	!	!
4GG/	f	4G/	f	4b 4d/	f	8.gg\L	f	2.ryy	2.ryy	2.ryy	2.ryy
.	.	.	.	.	.	32ff#\LL	.	.	.	.	.
.	.	.	.	.	.	32ee\JJJ	.	.	.	.	.
4r	.	4r	.	4r	.	4dd\	.	.	.	.	.
4r	.	4r	.	4r	.	4dd\	.	.	.	.	.
=29	=29	=29	=29	=29	=29	=29	=29	=29	=29	=29	=29
(4G\	.	(4g\	.	(4b/	.	(4dd\	.	2.ryy	2.ryy	2.ryy	2.ryy
4A\	.	4d\	p	4f#/	.	4cc\	.	.	.	.	.
4B\)	.	4d\)	.	4g/)	.	4b\)	.	.	.	.	.
=30	=30	=30	=30	=30	=30	=30	=30	=30	=30	=30	=30
!	!	!	!	!	!LO:DY:a	!	!	!	!	!	!
(2c\	p	(2c\	.	(2e/	pp	8a/L	p	2.ryy	2.ryy	2.ryy	2.ryy
.	.	.	.	.	.	8a/	.	.	.	.	.
.	.	.	.	.	.	8a/	.	.	.	.	.
.	.	.	.	.	.	8a/J	.	.	.	.	.
4d\)	.	4d\)	.	4f#/)	.	(16ee\LL	.	.	.	.	.
.	.	.	.	.	.	16cc\	.	.	.	.	.
.	.	.	.	.	.	16b\	.	.	.	.	.
.	.	.	.	.	.	16a\JJ)	.	.	.	.	.
=31	=31	=31	=31	=31	=31	=31	=31	=31	=31	=31	=31
8r	.	8r	.	(4.f#/	.	(4.a/	.	2.ryy	2.ryy	2.ryy	2.ryy
!LO:TX:t=P:problem=mixed beam	!	!LO:TX:t=P:problem=mixed beam	!	!	!	!	!	!	!	!	!
8D\L	.	8d\L	.	.	.	.	.	.	.	.	.
8E\	.	8e\	.	.	.	.	.	.	.	.	.
8F#\	.	8f#\	.	16g/LL	.	16b\LL	.	.	.	.	.
.	.	.	.	16a/JJ)	.	16cc\JJ)	.	.	.	.	.
8G\	.	8g\	.	4g/	.	4b\	.	.	.	.	.
8GG/J	.	8G/J	.	.	.	.	.	.	.	.	.
=32	=32	=32	=32	=32	=32	=32	=32	=32	=32	=32	=32
4G\	f	4G/	f	4b\	f	(8.gg\L	.	2.ryy	2.ryy	2.ryy	2.ryy
.	.	.	.	.	.	32ff#\LL	.	.	.	.	.
.	.	.	.	.	.	32ee\JJJ)	.	.	.	.	.
4r	.	4r	.	4r	.	4dd\	.	.	.	.	.
4r	.	4r	.	4r	.	4dd\	.	.	.	.	.
=33	=33	=33	=33	=33	=33	=33	=33	=33	=33	=33	=33
(4G\	.	(4g\	.	(4b/	.	(4dd\	.	2.ryy	2.ryy	2.ryy	2.ryy
4A\	.	4d\	.	4f#/	.	4cc\	.	.	.	.	.
4B\)	.	4d\)	.	4g/)	.	4b\)	.	.	.	.	.
=34	=34	=34	=34	=34	=34	=34	=34	=34	=34	=34	=34
2c\	.	(4c\	.	(4e/	.	16b\LL	.	2.ryy	2.ryy	2.ryy	2.ryy
!	!	!	!	!	!	!LO:N:vis=32	!	!	!	!	!
.	.	.	.	.	.	(16a\	.	.	.	.	.
.	.	.	.	.	.	32dd\L	.	.	.	.	.
.	.	.	.	.	.	32cc\	.	.	.	.	.
.	.	.	.	.	.	32b\	.	.	.	.	.
.	.	.	.	.	.	32a\JJJ)	.	.	.	.	.
.	.	4d\	.	4B/	.	4g/	.	.	.	.	.
8d\L	.	4c\)	.	4A/)	.	4f#m/	.	.	.	.	.
8D\J	.	.	.	.	.	.	.	.	.	.	.
=35	=35	=35	=35	=35	=35	=35	=35	=35	=35	=35	=35
4G\	.	(2A/	.	(2c/	.	(2f#/	.	2.ryy	2.ryy	2.ryy	2.ryy
4D\	.	.	.	.	.	.	.	.	.	.	.
4GG/	.	8G/)	.	4B/)	.	8g/)	.	.	.	.	.
.	.	8r	.	.	.	8r	.	.	.	.	.
=36	=36	=36	=36	=36	=36	=36	=36	=36	=36	=36	=36
!	!LO:DY:a	!	!LO:DY:a	!	!LO:DY:a	!	!LO:DY:a	!	!	!	!
4GG/	pp	(8G/L	pp	(8B/L	pp	(4.g/	pp	2.ryy	2.ryy	2.ryy	2.ryy
.	.	8B/)	.	8d/	.	.	.	.	.	.	.
4G\	.	(8G/	.	8B/	.	.	.	.	.	.	.
.	.	8B/	.	8d/	.	8g/L	.	.	.	.	.
4r	.	8A/	.	8c/	.	8f#/	.	.	.	.	.
.	.	8G/J)	.	8B/J)	.	8g/J)	.	.	.	.	.
=37	=37	=37	=37	=37	=37	=37	=37	=37	=37	=37	=37
*	*	*tremolo	*	*	*	*	*	*	*	*	*
8r	.	8F#/L	.	8d/L	.	4.a/	.	2.ryy	2.ryy	2.ryy	2.ryy
!LO:TX:t=P:problem=mixed beam	!	!	!	!	!	!	!	!	!	!	!
8D\L	.	8F#/	.	8d/	.	.	.	.	.	.	.
8F#\	.	8F#/	.	8d/	.	.	.	.	.	.	.
8D\	.	8F#/J	.	8d/J	.	16b/LL	.	.	.	.	.
.	.	.	.	.	.	16cc/JJ	.	.	.	.	.
*	*	*Xtremolo	*	*	*	*	*	*	*	*	*
8G\	.	4G/	.	4d/	.	4b\	.	.	.	.	.
8GG/J	.	.	.	.	.	.	.	.	.	.	.
=38	=38	=38	=38	=38	=38	=38	=38	=38	=38	=38	=38
4G\	.	4B/	.	4d/	.	[4dd\	.	2.ryy	2.ryy	2.ryy	2.ryy
4r	.	4r	.	4r	.	(16dd\LL]	.	.	.	.	.
.	.	.	.	.	.	16b\	.	.	.	.	.
.	.	.	.	.	.	16ee\	.	.	.	.	.
.	.	.	.	.	.	16dd\JJ	.	.	.	.	.
4r	.	4r	.	4r	.	16cc\LL	.	.	.	.	.
.	.	.	.	.	.	16b\	.	.	.	.	.
.	.	.	.	.	.	16a\	.	.	.	.	.
.	.	.	.	.	.	16g\JJ)	.	.	.	.	.
=39	=39	=39	=39	=39	=39	=39	=39	=39	=39	=39	=39
8r	.	8r	.	8r	.	(4.a/	.	2.ryy	2.ryy	2.ryy	2.ryy
!LO:TX:t=P:problem=mixed beam	!	!	!	!	!	!	!	!	!	!	!
8D\L	.	8c/L	.	8d/L	.	.	.	.	.	.	.
8F#^\	.	8c/	.	8d/	.	.	.	.	.	.	.
8D\	.	8c/J	.	8d/J	.	16b/LL	.	.	.	.	.
.	.	.	.	.	.	16cc/JJ)	.	.	.	.	.
8G\	.	4B/	.	4d/	.	4b\	.	.	.	.	.
8GG/J	.	.	.	.	.	.	.	.	.	.	.
=40	=40	=40	=40	=40	=40	=40	=40	=40	=40	=40	=40
8r	.	8r	.	(2cc^\	.	(2ee^\	.	2.ryy	2.ryy	2.ryy	2.ryy
!LO:TX:t=P:problem=mixed beam	!	!LO:TX:t=P:problem=mixed beam	!	!	!	!	!	!	!	!	!
8C\L	.	8c\L	.	.	.	.	.	.	.	.	.
8E^\	.	8e^\	.	.	.	.	.	.	.	.	.
8F#\	.	8f#\	.	.	.	.	.	.	.	.	.
8G\	.	8g\	.	8b\)	.	8dd\)	.	.	.	.	.
8GG/J	.	8G/J	.	8r	.	8r	.	.	.	.	.
=41	=41	=41	=41	=41	=41	=41	=41	=41	=41	=41	=41
8r	.	8r	.	(2a^/	.	(2cc^\	.	2.ryy	2.ryy	2.ryy	2.ryy
!	!	!LO:TX:t=P:problem=mixed beam	!	!	!	!	!	!	!	!	!
8D#X\L	.	8d#X\L	.	.	.	.	.	.	.	.	.
8D#\	.	8d#^\	.	.	.	.	.	.	.	.	.
8D#\J	.	8d#\	.	.	.	.	.	.	.	.	.
4E\	.	8e\	.	8g/)	.	8b\)	.	.	.	.	.
.	.	8E/J	.	8r	.	8r	.	.	.	.	.
=42	=42	=42	=42	=42	=42	=42	=42	=42	=42	=42	=42
4c\	.	4c\	.	4e'/	.	16a'\LL	.	2.ryy	2.ryy	2.ryy	2.ryy
.	.	.	.	.	.	(16ee\	.	.	.	.	.
.	.	.	.	.	.	16cc\	.	.	.	.	.
.	.	.	.	.	.	16a\JJ)	.	.	.	.	.
4d\	.	(4d\	.	(4B/	.	4g/	.	.	.	.	.
4D\	.	8c\)	.	8A/)	.	4f#/	.	.	.	.	.
.	.	8r	.	8r	.	.	.	.	.	.	.
=43	=43	=43	=43	=43	=43	=43	=43	=43	=43	=43	=43
8r	.	8r	.	(2cc^\	.	(2ee^\	.	2.ryy	2.ryy	2.ryy	2.ryy
!LO:TX:t=P:problem=mixed beam	!	!LO:TX:t=P:problem=mixed beam	!	!	!	!	!	!	!	!	!
8C\L	.	8c\L	.	.	.	.	.	.	.	.	.
8E^\	.	8e^\	.	.	.	.	.	.	.	.	.
8F#\	.	8f#\	.	.	.	.	.	.	.	.	.
8G\	.	8g\	.	8b\)	.	4dd\)	.	.	.	.	.
8GG/J	.	8G/J	.	8r	.	.	.	.	.	.	.
=44	=44	=44	=44	=44	=44	=44	=44	=44	=44	=44	=44
8r	.	8r	.	(2a^/	.	(2cc^\	.	2.ryy	2.ryy	2.ryy	2.ryy
!	!	!LO:TX:t=P:problem=mixed beam	!	!	!	!	!	!	!	!	!
8D#X^\L	.	8d#X\L	.	.	.	.	.	.	.	.	.
8D#\	.	8f#\	.	.	.	.	.	.	.	.	.
8D#\J	.	8f#\	.	.	.	.	.	.	.	.	.
8E\L	.	8e\	.	8g/)	.	8b\)	.	.	.	.	.
8e\J	.	8E/J	.	8r	.	8r	.	.	.	.	.
=45	=45	=45	=45	=45	=45	=45	=45	=45	=45	=45	=45
4c\	.	(4c\	.	4e/	.	(16b\LL	.	2.ryy	2.ryy	2.ryy	2.ryy
.	.	.	.	.	.	32a\L	.	.	.	.	.
.	.	.	.	.	.	32b\	.	.	.	.	.
.	.	.	.	.	.	32dd\	.	.	.	.	.
.	.	.	.	.	.	32cc\	.	.	.	.	.
.	.	.	.	.	.	32b\	.	.	.	.	.
.	.	.	.	.	.	32a\JJJ)	.	.	.	.	.
4d\	.	4d\	.	4B/	.	4g/	.	.	.	.	.
4D\	.	4c\)	.	4A/	.	4f#/	.	.	.	.	.
=46	=46	=46	=46	=46	=46	=46	=46	=46	=46	=46	=46
!	!LO:DY:a	!	!LO:DY:a	!	!	!	!LO:DY:a	!	!	!	!
4G'\	pp	(4B/	pp	4B/	.	4g/	pp	2.ryy	2.ryy	2.ryy	2.ryy
4D'\	.	4G/)	.	4B/	.	4g/	.	.	.	.	.
4BB'/	.	4G'/	.	4B/	.	4g/	.	.	.	.	.
=47	=47	=47	=47	=47	=47	=47	=47	=47	=47	=47	=47
2GG;/	.	2G;/	.	2B/	.	2g;/	.	2.ryy	2.ryy	2.ryy	2.ryy
4r	.	4r	.	4r	.	4r	.	.	.	.	.
==	==	==	==	==	==	==	==	==	==	==	==
*-	*-	*-	*-	*-	*-	*-	*-	*-	*-	*-	*-
!!title: @{OTL};
!!!RDF**kern: > = above
!!!RDF**kern: < = below
!!!RDF**dynam: > = "dim.", fontstyle= "bold-italic"
!!!RDF**dynam: < = "cres.", fontstyle= "bold-italic"
!!!RDF**kern: | = vertical stroke
!!!RDF**kern: N = linked
!!!RDF**kern: i = editorial accidental
!!!RDF**kern: l = terminal long
!!!ENC: Andrzej Kubiczek
!!!END: 2020-10-04
!!!EED: Wojciech Jakubiak-Danek
!!!EEV: 2022-01-31
!!!URL-scan: http://repozytorium.nifc.pl/skany/pl-cz-nut--iii-557
!!!ONB-nifc: UWAGA: części Sinfonii: Allegro vivace, Andante expressivo, Rondo
